X: 9173
T: Dalaigh's
R: polka
M: 2/4
K: Adorian
|:eA Ae|ed Bd|eA AB/A/|G2 B/c/d|
eA Ae|ed Bd|e/f/g/f/ dB|A2 A2:|
|:ed ef|ga g2|ed e/f/g|a2 gf|
ed ef|ga ge|dB GB|A2 A2:|

